source/img/logo_pognaly/logo-white_tablet.svg

<svg width="168" height="42" viewBox="0 0 168 42" fill="none" xmlns="http://www.w3.org/2000/svg">
<path d="M78.0164 10.6207L44.7362 42L32.5889 1.7717L78.0164 10.6207Z" fill="#FF8D30"/>
<ellipse cx="78.6237" cy="28.4735" rx="3.613" ry="3.57161" fill="#88BFEB"/>
<ellipse cx="92.8496" cy="18.0864" rx="12.5943" ry="12.45" fill="#EB9898"/>
<rect width="46.6582" height="23.5536" transform="matrix(0.939135 -0.343549 0.350582 0.936532 85.439 19.5749)" fill="#72A73E"/>
<ellipse cx="91.3343" cy="34.1406" rx="2.11696" ry="2.09272" fill="#FFBD30"/>
<ellipse rx="18.9194" ry="7.58723" transform="matrix(0.970246 0.242122 -0.247424 0.968907 132.047 28.0501)" fill="#8EC7F5"/>
<ellipse cx="146.385" cy="10.2562" rx="2.15293" ry="2.12827" fill="#FFBD30"/>
<ellipse cx="153.102" cy="7.72761" rx="2.15293" ry="2.12827" fill="#FFBD30"/>
<path d="M3.34155 35.349H8.33248V37.6688C8.33248 38.2211 7.88477 38.6688 7.33248 38.6688H4.34155C3.78927 38.6688 3.34155 38.2211 3.34155 37.6688V35.349Z" fill="#1D2959"/>
<path d="M34.2034 35.349H39.1943V37.6688C39.1943 38.2211 38.7466 38.6688 38.1943 38.6688H35.2034C34.6511 38.6688 34.2034 38.2211 34.2034 37.6688V35.349Z" fill="#1D2959"/>
<path fill-rule="evenodd" clip-rule="evenodd" d="M23.9206 2.93804C22.9471 2.55374 21.8837 2.24535 21.1121 2.26056C20.3858 2.27488 19.391 2.58611 18.4834 2.96056C17.9754 3.1702 17.4737 3.40137 16.9901 3.6628L16.9869 3.66455C16.4148 3.97905 15.6945 3.77264 15.3784 3.20325C15.0622 2.63378 15.2697 1.91701 15.8419 1.6023C16.0085 1.51188 16.1774 1.42555 16.3474 1.34147C16.6531 1.19024 17.0821 0.9881 17.5768 0.783995C18.5255 0.392564 19.8679 0.024811 21.0653 0.00120765C22.3395 -0.0239095 23.7772 0.346681 24.7935 0.747828C25.4275 0.998099 26.0526 1.27466 26.6534 1.59671L26.6541 1.59711C27.2292 1.90657 27.4433 2.62141 27.1324 3.19375C26.8232 3.76289 26.0945 3.97184 25.5246 3.66786C25.3789 3.59088 25.2311 3.51777 25.0826 3.4464C24.7923 3.30694 24.3855 3.12153 23.9206 2.93804Z" fill="#8A4A38"/>
<path fill-rule="evenodd" clip-rule="evenodd" d="M15.9931 1.44998C15.4621 1.44998 15.0317 1.88038 15.0317 2.41131V3.02596C15.0317 3.4684 15.3904 3.82707 15.8328 3.82707H15.8545V6.89417H16.6933V3.80514H16.475C17.0221 3.69862 17.4351 3.2168 17.4351 2.63853C17.4351 1.98211 16.9029 1.44998 16.2465 1.44998H15.9931Z" fill="#F6EF3E"/>
<path fill-rule="evenodd" clip-rule="evenodd" d="M26.5125 1.44998C27.0435 1.44998 27.4739 1.88038 27.4739 2.41131V3.02596C27.4739 3.4684 27.1152 3.82707 26.6728 3.82707H26.6511V6.89417H25.8123V3.80514H26.0307C25.4835 3.69862 25.0705 3.2168 25.0705 2.63853C25.0705 1.98211 25.6027 1.44998 26.2591 1.44998H26.5125Z" fill="#F6EF3E"/>
<path d="M0 15.5203C0 10.5497 4.02944 6.52026 9 6.52026H33.5399C38.5105 6.52026 42.5399 10.5497 42.5399 15.5203V35.349H0V15.5203Z" fill="#8A4A38"/>
<ellipse cx="6.68408" cy="27.9276" rx="4.16748" ry="4.12104" fill="#EF9A9A"/>
<ellipse rx="4.01571" ry="7.727" transform="matrix(0.700848 -0.71331 0.721334 0.692588 32.7661 28.0696)" fill="#93C6EB"/>
<rect width="13.6922" height="7.62634" transform="matrix(0.688909 -0.724848 0.732721 0.680529 16.3958 17.905)" fill="#C2DEA3"/>
<rect width="6.95591" height="5.21665" rx="1" transform="matrix(0.733892 0.679267 -0.687658 0.726035 8.78491 11.1394)" fill="#C49A6C"/>
<rect x="8.33276" y="19.3622" width="5.86679" height="16.7996" fill="#F57B20"/>
<path d="M8.33276 5.43422H14.1996V19.982C14.1996 21.602 12.8862 22.9154 11.2662 22.9154C9.64609 22.9154 8.33276 21.6021 8.33276 19.982V5.43422Z" fill="#F6A725"/>
<rect x="7.51953" y="18.042" width="7.49871" height="1.64937" fill="#F6EF3E"/>
<rect x="28.3462" y="19.3622" width="5.86679" height="16.7996" fill="#F57B20"/>
<path d="M28.3462 5.43422H34.213V19.982C34.213 21.602 32.8997 22.9154 31.2796 22.9154C29.6595 22.9154 28.3462 21.6021 28.3462 19.982V5.43422Z" fill="#F6A725"/>
<rect x="27.533" y="18.042" width="7.49871" height="1.64937" fill="#F6EF3E"/>
<g filter="url(#filter0_d_13536_3119)">
<path d="M164.789 19.0571C165.596 18.5496 166 17.7672 166 16.7099C166 15.3283 165.419 14.2428 164.257 13.4533C163.127 12.6497 161.795 12.248 160.261 12.248C158.76 12.248 157.388 12.685 156.145 13.559C154.918 14.419 154.304 15.568 154.304 17.0059C154.304 17.5416 154.474 17.9857 154.813 18.3381C155.152 18.6765 155.636 18.8456 156.266 18.8456C156.879 18.8456 157.347 18.6765 157.67 18.3381C158.009 17.9857 158.179 17.5416 158.179 17.0059C158.146 16.5971 158.284 16.1812 158.59 15.7583C158.897 15.3212 159.454 15.1027 160.261 15.1027C160.939 15.1168 161.423 15.286 161.714 15.6102C162.021 15.9345 162.158 16.2587 162.126 16.583C162.126 16.8085 162.045 17.0341 161.884 17.2597C161.722 17.4852 161.553 17.6614 161.375 17.7883C161.214 17.9152 160.947 18.0985 160.576 18.3381C160.205 18.5778 159.946 18.747 159.801 18.8456C158.962 19.4518 158.542 20.2554 158.542 21.2563C158.542 21.7498 158.719 22.1656 159.075 22.504C159.446 22.8282 159.938 22.9903 160.552 22.9903C161.165 22.9903 161.649 22.8282 162.005 22.504C162.376 22.1656 162.562 21.7498 162.562 21.2563C162.562 21.0449 162.602 20.8475 162.683 20.6642C162.763 20.481 162.892 20.3118 163.07 20.1567C163.264 20.0017 163.425 19.8748 163.554 19.7761C163.7 19.6774 163.91 19.5505 164.184 19.3955C164.475 19.2404 164.676 19.1276 164.789 19.0571Z" fill="#192144"/>
<path d="M144.098 23.5094L148.387 18.2592C148.827 17.6254 149.424 17.2725 150.178 17.2005C150.932 17.1141 151.591 17.2941 152.157 17.7406C152.723 18.1872 152.99 18.7849 152.958 19.5339V27.0528C152.958 27.5281 152.77 27.9314 152.393 28.2627C152.031 28.5796 151.591 28.7381 151.073 28.7381C150.555 28.7381 150.107 28.5796 149.73 28.2627C149.369 27.9314 149.188 27.5281 149.188 27.0528V22.3859L144.899 27.6362C144.459 28.2699 143.862 28.6228 143.108 28.6949C142.354 28.7813 141.694 28.6012 141.129 28.1547C140.563 27.7082 140.296 27.1104 140.328 26.3614V18.8641C140.328 18.3888 140.508 17.9855 140.87 17.6542C141.247 17.3229 141.694 17.1573 142.213 17.1573C142.731 17.1573 143.171 17.3229 143.532 17.6542C143.91 17.9855 144.098 18.3888 144.098 18.8641V23.5094Z" fill="#192144"/>
<path fill-rule="evenodd" clip-rule="evenodd" d="M124.817 26.9791V18.822C124.817 18.3529 124.618 17.9498 124.222 17.6127C123.841 17.2609 123.389 17.085 122.866 17.085C122.359 17.085 121.915 17.2609 121.534 17.6127C121.154 17.9498 120.963 18.3529 120.963 18.822V18.6241C120.773 18.1844 120.392 17.8106 119.822 17.5028C119.251 17.1803 118.601 17.0191 117.871 17.0191C116.444 17.0191 115.128 17.5394 113.923 18.5801C112.749 19.6208 112.163 21.05 112.163 22.8675C112.163 24.7291 112.742 26.1729 113.899 27.1989C115.057 28.225 116.381 28.738 117.871 28.738C118.601 28.738 119.243 28.6061 119.798 28.3422C120.353 28.0637 120.757 27.7339 121.011 27.3528C121.106 27.7486 121.328 28.0784 121.677 28.3422C122.026 28.5914 122.422 28.716 122.866 28.716C123.389 28.716 123.841 28.5474 124.222 28.2103C124.618 27.8732 124.817 27.4628 124.817 26.9791ZM118.733 25.4801C120.033 25.4801 121.087 24.3516 121.087 22.9595C121.087 21.5674 120.033 20.4389 118.733 20.4389C117.433 20.4389 116.38 21.5674 116.38 22.9595C116.38 24.3516 117.433 25.4801 118.733 25.4801Z" fill="#192144"/>
<path d="M107.15 21.3111V18.9534C107.15 18.4744 107.347 18.0679 107.739 17.7341C108.132 17.3857 108.59 17.2115 109.114 17.2115C109.637 17.2115 110.095 17.3857 110.488 17.7341C110.88 18.0679 111.077 18.4744 111.077 18.9534V27.0315C111.077 27.5105 110.88 27.9169 110.488 28.2508C110.111 28.5847 109.653 28.7516 109.114 28.7516C108.574 28.7516 108.107 28.5847 107.715 28.2508C107.339 27.9169 107.15 27.5105 107.15 27.0315V24.639H102.905V27.0315C102.905 27.5105 102.709 27.9169 102.316 28.2508C101.94 28.5847 101.482 28.7516 100.942 28.7516C100.402 28.7516 99.9361 28.5847 99.5435 28.2508C99.1673 27.9169 98.9791 27.5105 98.9791 27.0315V18.9534C98.9791 18.4744 99.1754 18.0679 99.5681 17.7341C99.9607 17.3857 100.419 17.2115 100.942 17.2115C101.466 17.2115 101.924 17.3857 102.316 17.7341C102.709 18.0679 102.905 18.4744 102.905 18.9534V21.3111H107.15Z" fill="#192144"/>
<path d="M97.0093 17.2115C97.3939 17.2115 97.7235 17.3558 97.9982 17.6445C98.2729 17.9331 98.4102 18.5985 98.4102 19.0026C98.4102 19.4067 98.2729 19.8246 97.9982 20.1133C97.7235 20.4019 97.3939 20.5035 97.0093 20.5035H93.7193V27.073C93.7193 28.3163 92.6144 28.7517 91.5065 28.7517C90.4785 28.7517 89.497 28.2008 89.497 27.0847L89.531 17.2115C89.531 17.2115 95.2633 17.2115 97.0093 17.2115Z" fill="#192144"/>
<path d="M73.5366 12.248V26.916C73.5366 27.3997 73.2711 27.81 72.9031 28.1471C72.5504 28.4843 71.9961 28.6528 71.4901 28.6528C70.9841 28.6528 70.2526 28.4843 69.8846 28.1471C69.5319 27.81 69.3556 27.3996 69.3556 26.9159V15.5588H63.4358V26.9159C63.4358 27.3996 63.2518 27.81 62.8838 28.1471C62.5311 28.4843 61.813 28.6528 61.307 28.6528C60.801 28.6528 60.1377 28.4843 59.7697 28.1471C59.4171 27.81 59.2407 27.3996 59.2407 26.9159V12.248C63.9789 12.248 73.5366 12.248 73.5366 12.248Z" fill="#192144"/>
<path d="M86.6395 26.9528C85.4423 28.0648 83.8401 28.6209 81.833 28.6209C79.8259 28.6209 78.2326 28.0648 77.053 26.9528C75.8382 25.8241 75.2308 24.4133 75.2308 22.7203C75.2308 21.0107 75.8382 19.5998 77.053 18.4877C78.2326 17.3757 79.8259 16.8196 81.833 16.8196C83.8401 16.8196 85.4423 17.3757 86.6395 18.4877C87.8367 19.6164 88.4353 21.0272 88.4353 22.7203C88.4353 24.4133 87.8367 25.8241 86.6395 26.9528ZM83.5232 20.9775C83.1887 20.6289 82.7749 20.4214 82.282 20.355C81.8066 20.272 81.3489 20.3135 80.9087 20.4795C80.4862 20.6455 80.1252 20.9277 79.8259 21.326C79.5442 21.7244 79.421 22.1891 79.4562 22.7203C79.4562 23.4174 79.6763 23.9983 80.1164 24.463C80.5742 24.9112 81.1464 25.1353 81.833 25.1353C82.5373 25.1353 83.1095 24.9195 83.5496 24.4879C83.9898 24.0398 84.2098 23.4506 84.2098 22.7203C84.2098 22.0231 83.981 21.4422 83.5232 20.9775Z" fill="#192144"/>
<path d="M130.438 17.1573C132.689 17.1573 138.687 17.1904 138.687 17.1904C138.687 17.1904 138.691 24.4421 138.691 26.9763C138.691 27.463 138.489 27.8826 138.084 28.2351C137.697 28.5708 137.348 28.7386 136.759 28.7386C136.17 28.7386 135.87 28.7828 135.465 28.4471C135.079 28.0946 134.723 27.463 134.723 26.9763V20.4303H131.991C131.991 25.1227 131.992 26.1537 130.245 27.8323C129.601 28.4365 128.773 28.7386 127.761 28.7386C127.153 28.7386 126.797 28.5946 126.41 28.2589C126.024 27.9065 125.724 27.344 125.724 26.8236C125.724 25.7036 125.961 25.2578 126.568 24.5271C128.311 24.5271 128.235 24.1096 128.126 20.9338V18.9197C128.144 18.4329 128.235 17.1573 128.235 17.1573C128.235 17.1573 129.904 17.1573 130.438 17.1573Z" fill="#192144"/>
<path d="M162.841 26.2707C162.841 27.6333 161.674 28.7379 160.234 28.7379C158.794 28.7379 157.627 27.6333 157.627 26.2707C157.627 24.9081 158.794 23.8035 160.234 23.8035C161.674 23.8035 162.841 24.9081 162.841 26.2707Z" fill="#192144"/>
</g>
<defs>
<filter id="filter0_d_13536_3119" x="57.2407" y="11.248" width="110.759" height="20.5037" filterUnits="userSpaceOnUse" color-interpolation-filters="sRGB">
<feFlood flood-opacity="0" result="BackgroundImageFix"/>
<feColorMatrix in="SourceAlpha" type="matrix" values="0 0 0 0 0 0 0 0 0 0 0 0 0 0 0 0 0 0 127 0" result="hardAlpha"/>
<feOffset dy="1"/>
<feGaussianBlur stdDeviation="1"/>
<feColorMatrix type="matrix" values="0 0 0 0 0 0 0 0 0 0 0 0 0 0 0 0 0 0 0.3 0"/>
<feBlend mode="normal" in2="BackgroundImageFix" result="effect1_dropShadow_13536_3119"/>
<feBlend mode="normal" in="SourceGraphic" in2="effect1_dropShadow_13536_3119" result="shape"/>
</filter>
</defs>
</svg>

<svg width="168" height="42" fill="none" xmlns="http://www.w3.org/2000/svg"><path d="M78.02 10.62 44.74 42 32.59 1.77l45.43 8.85Z" fill="#FF8D30"/><ellipse cx="78.62" cy="28.47" rx="3.61" ry="3.57" fill="#88BFEB"/><ellipse cx="92.85" cy="18.09" rx="12.59" ry="12.45" fill="#EB9898"/><path fill="#72A73E" d="m85.44 19.57 43.82-16.03 8.26 22.06L93.7 41.63z"/><ellipse cx="91.33" cy="34.14" rx="2.12" ry="2.09" fill="#FFBD30"/><ellipse rx="18.92" ry="7.59" transform="matrix(.97025 .24212 -.24742 .9689 132.05 28.05)" fill="#8EC7F5"/><ellipse cx="146.38" cy="10.26" rx="2.15" ry="2.13" fill="#FFBD30"/><ellipse cx="153.1" cy="7.73" rx="2.15" ry="2.13" fill="#FFBD30"/><path d="M3.34 35.35h5v2.32a1 1 0 0 1-1 1h-3a1 1 0 0 1-1-1v-2.32ZM34.2 35.35h5v2.32a1 1 0 0 1-1 1h-3a1 1 0 0 1-1-1v-2.32Z" fill="#1D2959"/><path fill-rule="evenodd" clip-rule="evenodd" d="M23.92 2.94a8.18 8.18 0 0 0-2.8-.68 8.2 8.2 0 0 0-2.64.7c-.5.21-1 .44-1.49.7-.58.32-1.3.11-1.61-.46-.32-.57-.11-1.28.46-1.6a15 15 0 0 1 1.74-.82C18.53.4 19.87.02 21.07 0c1.27-.02 2.7.35 3.72.75.64.25 1.26.52 1.86.85.58.3.8 1.02.48 1.6a1.2 1.2 0 0 1-1.6.47 13 13 0 0 0-1.6-.73Z" fill="#8A4A38"/><path fill-rule="evenodd" clip-rule="evenodd" d="M16 1.45a.96.96 0 0 0-.97.96v.62c0 .44.36.8.8.8h.02v3.06h.84V3.81h-.21a1.19 1.19 0 0 0-.23-2.36h-.26ZM26.51 1.45c.53 0 .96.43.96.96v.62a.8.8 0 0 1-.8.8h-.02v3.06h-.84V3.81h.22a1.19 1.19 0 0 1 .23-2.36h.25Z" fill="#F6EF3E"/><path d="M0 15.52a9 9 0 0 1 9-9h24.54a9 9 0 0 1 9 9v19.83H0V15.52Z" fill="#8A4A38"/><ellipse cx="6.68" cy="27.93" rx="4.17" ry="4.12" fill="#EF9A9A"/><ellipse rx="4.02" ry="7.73" transform="matrix(.70085 -.71331 .72133 .69259 32.77 28.07)" fill="#93C6EB"/><path fill="#C2DEA3" d="m16.4 17.9 9.43-9.92 5.59 5.2-9.43 9.92z"/><rect width="6.96" height="5.22" rx="1" transform="matrix(.7339 .67927 -.68766 .72603 8.78 11.14)" fill="#C49A6C"/><path fill="#F57B20" d="M8.33 19.36h5.87v16.8H8.33z"/><path d="M8.33 5.43h5.87v14.55a2.93 2.93 0 0 1-5.87 0V5.43Z" fill="#F6A725"/><path fill="#F6EF3E" d="M7.52 18.04h7.5v1.65h-7.5z"/><path fill="#F57B20" d="M28.35 19.36h5.87v16.8h-5.87z"/><path d="M28.35 5.43h5.86v14.55a2.93 2.93 0 0 1-5.86 0V5.43Z" fill="#F6A725"/><path fill="#F6EF3E" d="M27.53 18.04h7.5v1.65h-7.5z"/><g filter="url(#a)" fill="#192144"><path d="M164.79 19.06c.8-.51 1.21-1.3 1.21-2.35 0-1.38-.58-2.47-1.74-3.26a6.72 6.72 0 0 0-4-1.2 7 7 0 0 0-4.11 1.3c-1.23.87-1.85 2.02-1.85 3.46 0 .53.17.98.51 1.33.34.34.83.5 1.46.5.6 0 1.08-.16 1.4-.5.34-.35.5-.8.5-1.33-.02-.41.11-.83.42-1.25.3-.44.86-.66 1.67-.66.68.02 1.16.19 1.45.51.31.32.45.65.42.97 0 .23-.09.45-.25.68-.16.23-.33.4-.5.53-.17.13-.43.3-.8.55l-.78.5a2.83 2.83 0 0 0-1.26 2.42c0 .49.18.9.53 1.24.38.33.87.49 1.48.49s1.1-.16 1.45-.49c.38-.33.56-.75.56-1.24 0-.22.04-.41.12-.6.08-.18.21-.35.39-.5l.48-.38c.15-.1.36-.23.63-.38.3-.16.5-.27.6-.34ZM144.1 23.5l4.29-5.24a2.36 2.36 0 0 1 1.79-1.06 2.6 2.6 0 0 1 1.98.54c.56.45.83 1.04.8 1.8v7.51c0 .48-.19.88-.57 1.21-.36.32-.8.48-1.32.48-.51 0-.96-.16-1.34-.48a1.58 1.58 0 0 1-.54-1.2v-4.67l-4.3 5.25c-.43.63-1.03.98-1.78 1.05a2.6 2.6 0 0 1-1.98-.54 2.05 2.05 0 0 1-.8-1.79v-7.5c0-.47.18-.87.54-1.2.38-.34.82-.5 1.34-.5.52 0 .96.16 1.32.5.38.33.57.73.57 1.2v4.65Z"/><path fill-rule="evenodd" clip-rule="evenodd" d="M124.82 26.98v-8.16c0-.47-.2-.87-.6-1.2a1.93 1.93 0 0 0-1.35-.54c-.51 0-.95.18-1.34.53-.38.34-.57.74-.57 1.21v-.2a2.42 2.42 0 0 0-1.14-1.12 3.9 3.9 0 0 0-1.95-.48c-1.43 0-2.74.52-3.95 1.56a5.43 5.43 0 0 0-1.76 4.29c0 1.86.58 3.3 1.74 4.33a5.82 5.82 0 0 0 3.97 1.54c.73 0 1.37-.13 1.93-.4.55-.28.96-.6 1.21-.99.1.4.32.73.67 1a2 2 0 0 0 1.19.37c.52 0 .97-.17 1.35-.51.4-.34.6-.75.6-1.23Zm-6.09-1.5c1.3 0 2.36-1.13 2.36-2.52 0-1.4-1.06-2.52-2.36-2.52-1.3 0-2.35 1.13-2.35 2.52 0 1.4 1.05 2.52 2.35 2.52Z"/><path d="M107.15 21.31v-2.36c0-.48.2-.88.59-1.22a2 2 0 0 1 1.37-.52 2 2 0 0 1 1.38.52c.39.34.59.74.59 1.22v8.08c0 .48-.2.89-.6 1.22a2 2 0 0 1-1.37.5c-.54 0-1-.17-1.4-.5a1.57 1.57 0 0 1-.56-1.22v-2.4h-4.25v2.4c0 .48-.2.89-.58 1.22a2 2 0 0 1-1.38.5c-.54 0-1-.17-1.4-.5a1.57 1.57 0 0 1-.56-1.22v-8.08c0-.48.2-.88.59-1.22a2 2 0 0 1 1.37-.52 2 2 0 0 1 1.38.52c.39.34.59.74.59 1.22v2.36h4.24ZM97 17.21c.4 0 .72.15 1 .43.27.3.41.96.41 1.36 0 .4-.14.82-.41 1.11-.28.3-.6.4-1 .4h-3.28v6.56c0 1.25-1.1 1.68-2.21 1.68-1.03 0-2.01-.55-2.01-1.67l.03-9.87h7.48ZM73.54 12.25v14.67c0 .48-.27.89-.64 1.23-.35.33-.9.5-1.41.5-.5 0-1.24-.17-1.6-.5a1.64 1.64 0 0 1-.53-1.23V15.56h-5.92v11.36c0 .48-.19.89-.56 1.23-.35.33-1.07.5-1.57.5s-1.17-.17-1.54-.5a1.64 1.64 0 0 1-.53-1.23V12.25h14.3ZM86.64 26.95a6.78 6.78 0 0 1-4.8 1.67c-2.01 0-3.6-.56-4.79-1.67a5.54 5.54 0 0 1-1.82-4.23c0-1.7.6-3.12 1.82-4.23 1.18-1.11 2.78-1.67 4.78-1.67 2.01 0 3.61.56 4.81 1.67a5.58 5.58 0 0 1 1.8 4.23c0 1.7-.6 3.1-1.8 4.23Zm-3.12-5.97a2.05 2.05 0 0 0-1.24-.63 2.57 2.57 0 0 0-1.37.13c-.42.17-.78.45-1.08.85-.29.4-.4.86-.37 1.39 0 .7.22 1.28.66 1.74.45.45 1.03.68 1.71.68.7 0 1.28-.22 1.72-.65.44-.45.66-1.04.66-1.77 0-.7-.23-1.28-.69-1.74ZM130.44 17.16l8.25.03v9.79c0 .48-.2.9-.6 1.26-.4.33-.74.5-1.33.5-.59 0-.89.04-1.3-.3a2.3 2.3 0 0 1-.74-1.46v-6.55H132c0 4.7 0 5.72-1.75 7.4-.64.6-1.47.9-2.48.9-.6 0-.96-.14-1.35-.47a2.08 2.08 0 0 1-.69-1.44c0-1.12.24-1.56.85-2.3 1.74 0 1.67-.41 1.56-3.59v-2.01c.01-.49.1-1.76.1-1.76h2.2ZM162.84 26.27a2.54 2.54 0 0 1-2.6 2.47c-1.45 0-2.61-1.1-2.61-2.47a2.54 2.54 0 0 1 2.6-2.47c1.44 0 2.61 1.1 2.61 2.47Z"/></g><defs><filter id="a" x="57.24" y="11.25" width="110.76" height="20.5" filterUnits="userSpaceOnUse" color-interpolation-filters="sRGB"><feFlood flood-opacity="0" result="BackgroundImageFix"/><feColorMatrix in="SourceAlpha" values="0 0 0 0 0 0 0 0 0 0 0 0 0 0 0 0 0 0 127 0" result="hardAlpha"/><feOffset dy="1"/><feGaussianBlur stdDeviation="1"/><feColorMatrix values="0 0 0 0 0 0 0 0 0 0 0 0 0 0 0 0 0 0 0.3 0"/><feBlend in2="BackgroundImageFix" result="effect1_dropShadow_13536_2577"/><feBlend in="SourceGraphic" in2="effect1_dropShadow_13536_2577" result="shape"/></filter></defs></svg>
